svg/fluentui-system-icons/ic_fluent_border_top_24_regular.svg

<svg width="24" height="24" viewBox="0 0 24 24" fill="none" xmlns="http://www.w3.org/2000/svg">
<path d="M3 6.25C3 6.66421 3.33579 7 3.75 7C4.16421 7 4.5 6.66421 4.5 6.25V5.75C4.5 5.05964 5.05964 4.5 5.75 4.5H18.25C18.9404 4.5 19.5 5.05964 19.5 5.75V6.25C19.5 6.66421 19.8358 7 20.25 7C20.6642 7 21 6.66421 21 6.25V5.75C21 4.23122 19.7688 3 18.25 3H5.75C4.23122 3 3 4.23122 3 5.75V6.25ZM4.5 10.75C4.5 10.3358 4.16421 10 3.75 10C3.33579 10 3 10.3358 3 10.75V13.25C3 13.6642 3.33579 14 3.75 14C4.16421 14 4.5 13.6642 4.5 13.25V10.75ZM19.5 10.75C19.5 10.3358 19.8358 10 20.25 10C20.6642 10 21 10.3358 21 10.75V13.25C21 13.6642 20.6642 14 20.25 14C19.8358 14 19.5 13.6642 19.5 13.25V10.75ZM14 20.25C14 20.6642 13.6642 21 13.25 21H10.75C10.3358 21 10 20.6642 10 20.25C10 19.8358 10.3358 19.5 10.75 19.5H13.25C13.6642 19.5 14 19.8358 14 20.25ZM6.25 21C6.66421 21 7 20.6642 7 20.25C7 19.8358 6.66421 19.5 6.25 19.5H5.75C5.05964 19.5 4.5 18.9404 4.5 18.25V17.75C4.5 17.3358 4.16421 17 3.75 17C3.33579 17 3 17.3358 3 17.75V18.25C3 19.7688 4.23122 21 5.75 21H6.25ZM17 20.25C17 20.6642 17.3358 21 17.75 21H18.25C19.7688 21 21 19.7688 21 18.25V17.75C21 17.3358 20.6642 17 20.25 17C19.8358 17 19.5 17.3358 19.5 17.75V18.25C19.5 18.9404 18.9404 19.5 18.25 19.5H17.75C17.3358 19.5 17 19.8358 17 20.25Z" fill="#212121"/>
</svg>

<svg xmlns="http://www.w3.org/2000/svg" width="24" height="24"><path d="M3 6.25a.75.75 0 0 0 1.5 0v-.5c0-.69.56-1.25 1.25-1.25h12.5c.69 0 1.25.56 1.25 1.25v.5a.75.75 0 0 0 1.5 0v-.5A2.75 2.75 0 0 0 18.25 3H5.75A2.75 2.75 0 0 0 3 5.75v.5Zm1.5 4.5a.75.75 0 0 0-1.5 0v2.5a.75.75 0 0 0 1.5 0v-2.5Zm15 0a.75.75 0 0 1 1.5 0v2.5a.75.75 0 0 1-1.5 0v-2.5Zm-5.5 9.5a.75.75 0 0 1-.75.75h-2.5a.75.75 0 0 1 0-1.5h2.5a.75.75 0 0 1 .75.75ZM6.25 21a.75.75 0 0 0 0-1.5h-.5c-.69 0-1.25-.56-1.25-1.25v-.5a.75.75 0 0 0-1.5 0v.5A2.75 2.75 0 0 0 5.75 21h.5ZM17 20.25c0 .414.336.75.75.75h.5A2.75 2.75 0 0 0 21 18.25v-.5a.75.75 0 0 0-1.5 0v.5c0 .69-.56 1.25-1.25 1.25h-.5a.75.75 0 0 0-.75.75Z"/></svg>
